SVG_Azure_All/Sync.svg

<?xml version="1.0" encoding="UTF-8" standalone="no"?>
<!-- Generated by Microsoft Visio, SVG Export Sync.svg Page-1 -->

<svg
   xmlns:dc="http://purl.org/dc/elements/1.1/"
   xmlns:cc="http://creativecommons.org/ns#"
   xmlns:rdf="http://www.w3.org/1999/02/22-rdf-syntax-ns#"
   xmlns:svg="http://www.w3.org/2000/svg"
   xmlns="http://www.w3.org/2000/svg"
   xmlns:sodipodi="http://sodipodi.sourceforge.net/DTD/sodipodi-0.dtd"
   xmlns:inkscape="http://www.inkscape.org/namespaces/inkscape"
   width="0.78740156in"
   height="0.78740156in"
   viewBox="0 0 56.692997 56.692997"
   xml:space="preserve"
   class="st3"
   version="1.1"
   id="svg24"
   sodipodi:docname="Sync.svg"
   style="font-size:12px;overflow:visible;color-interpolation-filters:sRGB;fill:none;fill-rule:evenodd;stroke-linecap:square;stroke-miterlimit:3"
   inkscape:version="0.92.5 (2060ec1f9f, 2020-04-08)"><metadata
   id="metadata30"><rdf:RDF><cc:Work
       rdf:about=""><dc:format>image/svg+xml</dc:format><dc:type
         rdf:resource="http://purl.org/dc/dcmitype/StillImage" /></cc:Work></rdf:RDF></metadata><defs
   id="defs28" /><sodipodi:namedview
   pagecolor="#ffffff"
   bordercolor="#666666"
   borderopacity="1"
   objecttolerance="10"
   gridtolerance="10"
   guidetolerance="10"
   inkscape:pageopacity="0"
   inkscape:pageshadow="2"
   inkscape:window-width="640"
   inkscape:window-height="480"
   id="namedview26"
   showgrid="false"
   inkscape:zoom="1.3289007"
   inkscape:cx="37.795279"
   inkscape:cy="37.794606"
   inkscape:window-x="0"
   inkscape:window-y="0"
   inkscape:window-maximized="0"
   inkscape:current-layer="svg24" />
	<style
   type="text/css"
   id="style2">
	<![CDATA[
		.st1 {fill:#015cda;stroke:none;stroke-linecap:butt;stroke-width:38.25}
		.st2 {fill:#ffffff;stroke:none;stroke-linecap:butt;stroke-width:38.25}
		.st3 {fill:none;fill-rule:evenodd;font-size:12px;overflow:visible;stroke-linecap:square;stroke-miterlimit:3}
	]]>
	</style>

	<g
   id="g22"
   transform="translate(-38.25,-38.2495)">
		<title
   id="title4">Page-1</title>
		<g
   id="group807-1"
   transform="translate(38.25,-38.25)">
			<title
   id="title6">Sync</title>
			<g
   id="group808-2">
				<title
   id="title8">Sheet.808</title>
				<g
   id="shape809-3">
					<title
   id="title10">Sheet.809</title>
					<circle
   cx="28.3465"
   cy="104.846"
   class="st1"
   id="ellipse12"
   r="28.3465"
   style="fill:#015cda;stroke:none;stroke-width:38.25;stroke-linecap:butt" />
				</g>
				<g
   id="shape810-5"
   transform="translate(10.8921,-8.87244)">
					<title
   id="title15">Sheet.810</title>
					<path
   d="m 16.82,96.65 h -0.19 c -3.97,0 -7.64,1.4 -10.62,3.61 L 0,94.24 v 15.83 H 15.82 L 9.85,104.1 a 11.2039,11.2039 0 0 1 6.97,-2.34 c 5.94,0 10.86,4.17 11.9,9.63 h 5.22 A 17.2913,17.2913 -180 0 0 16.82,96.65 Z m 17.9,20.67 H 19.09 l 0.08,0.04 h -0.08 l 5.78,5.79 c -1.96,1.38 -4.3,2.11 -6.96,2.11 -5.36,0 -9.92,-3.62 -11.48,-8.5 H 0.95 a 17.3197,17.3197 -180 0 0 16.95,13.6 h 0.19 c 3.91,0 7.54,-1.34 10.49,-3.5 l 6.33,6.33 v -15.87 z"
   class="st2"
   id="path17"
   inkscape:connector-curvature="0"
   style="fill:#ffffff;stroke:none;stroke-width:38.25;stroke-linecap:butt" />
				</g>
			</g>
		</g>
	</g>
</svg>

<?xml version="1.0" encoding="UTF-8" standalone="no"?>
<!DOCTYPE svg PUBLIC "-//W3C//DTD SVG 1.1//EN" "http://www.w3.org/Graphics/SVG/1.1/DTD/svg11.dtd">
<!-- Generated by Microsoft Visio, SVG Export Sync.svg Page-1 -->
<svg xmlns="http://www.w3.org/2000/svg" xmlns:xlink="http://www.w3.org/1999/xlink" xmlns:ev="http://www.w3.org/2001/xml-events"
		width="1.8499in" height="1.8499in" viewBox="0 0 133.193 133.193" xml:space="preserve" color-interpolation-filters="sRGB"
		class="st3">
	<style type="text/css">
	<![CDATA[
		.st1 {fill:#015cda;stroke:none;stroke-linecap:butt;stroke-width:38.25}
		.st2 {fill:#ffffff;stroke:none;stroke-linecap:butt;stroke-width:38.25}
		.st3 {fill:none;fill-rule:evenodd;font-size:12px;overflow:visible;stroke-linecap:square;stroke-miterlimit:3}
	]]>
	</style>

	<g>
		<title>Page-1</title>
		<g id="group792-1" transform="translate(38.25,-38.25)">
			<title>Sync</title>
			<g id="group793-2">
				<title>Sheet.793</title>
				<g id="shape794-3">
					<title>Sheet.794</title>
					<ellipse cx="28.3465" cy="104.846" rx="28.3465" ry="28.3465" class="st1"/>
				</g>
				<g id="shape795-5" transform="translate(10.8921,-8.87244)">
					<title>Sheet.795</title>
					<path d="M16.82 96.65 L16.63 96.65 C12.66 96.65 8.99 98.05 6.01 100.26 L0 94.24 L0 110.07 L15.82 110.07 L9.85
								 104.1 A11.2039 11.2039 0 0 1 16.82 101.76 C22.76 101.76 27.68 105.93 28.72 111.39 L33.94 111.39
								 A17.2913 17.2913 -180 0 0 16.82 96.65 ZM34.72 117.32 L19.09 117.32 L19.17 117.36 L19.09 117.36 L24.87
								 123.15 C22.91 124.53 20.57 125.26 17.91 125.26 C12.55 125.26 7.99 121.64 6.43 116.76 L0.95 116.76
								 A17.3197 17.3197 -180 0 0 17.9 130.36 L18.09 130.36 C22 130.36 25.63 129.02 28.58 126.86 L34.91
								 133.19 L34.91 117.32 L34.72 117.32 Z" class="st2"/>
				</g>
			</g>
		</g>
	</g>
</svg>
